humanity-icon-theme/Humanity/places/16/folder.svg

<?xml version="1.0" encoding="UTF-8" standalone="no"?>
<!-- Created with Inkscape (http://www.inkscape.org/) -->
<svg
   xmlns:svg="http://www.w3.org/2000/svg"
   xmlns="http://www.w3.org/2000/svg"
   xmlns:xlink="http://www.w3.org/1999/xlink"
   version="1.0"
   width="16"
   height="16"
   id="svg3272">
  <defs
     id="defs3274">
    <linearGradient
       x1="18.03083"
       y1="16.407909"
       x2="20.054544"
       y2="24.627615"
       id="linearGradient2687"
       xlink:href="#linearGradient8265-821-176-38-919-66-249"
       gradientUnits="userSpaceOnUse"
       gradientTransform="matrix(0.2966887,0,0,0.3520695,1.8805021,2.1186294)" />
    <linearGradient
       x1="10.318256"
       y1="14.992862"
       x2="4.1760364"
       y2="4.0514131"
       id="linearGradient2692"
       xlink:href="#linearGradient3390-178-986-453"
       gradientUnits="userSpaceOnUse"
       gradientTransform="matrix(1.0083043,0,0,1.0006232,-8.2398426e-4,-6.6205e-3)" />
    <linearGradient
       x1="126.69791"
       y1="58.583481"
       x2="169.22964"
       y2="238.3999"
       id="linearGradient2690"
       xlink:href="#linearGradient7012-661-145-733-759-865-745-661-970-94"
       gradientUnits="userSpaceOnUse"
       gradientTransform="matrix(5.489342e-2,1.385132e-2,2.57263e-3,5.248166e-2,-0.7128009,-0.2674105)" />
    <radialGradient
       cx="605.71429"
       cy="486.64789"
       r="117.14286"
       fx="605.71429"
       fy="486.64789"
       id="radialGradient2677"
       xlink:href="#linearGradient5060"
       gradientUnits="userSpaceOnUse"
       gradientTransform="matrix(-2.774389,0,0,1.969706,112.7623,-872.8854)" />
    <radialGradient
       cx="605.71429"
       cy="486.64789"
       r="117.14286"
       fx="605.71429"
       fy="486.64789"
       id="radialGradient2675"
       xlink:href="#linearGradient5060"
       gradientUnits="userSpaceOnUse"
       gradientTransform="matrix(2.774389,0,0,1.969706,-1891.633,-872.8854)" />
    <linearGradient
       x1="302.85715"
       y1="366.64789"
       x2="302.85715"
       y2="609.50507"
       id="linearGradient2673"
       xlink:href="#linearGradient5048"
       gradientUnits="userSpaceOnUse"
       gradientTransform="matrix(2.774389,0,0,1.969706,-1892.179,-872.8854)" />
    <linearGradient
       x1="18.03083"
       y1="16.407909"
       x2="20.054544"
       y2="24.627615"
       id="linearGradient3404"
       xlink:href="#linearGradient8265-821-176-38-919-66-249"
       gradientUnits="userSpaceOnUse" />
    <linearGradient
       id="linearGradient3752">
      <stop
         id="stop3754"
         style="stop-color:#ffffff;stop-opacity:1"
         offset="0" />
      <stop
         id="stop3760"
         style="stop-color:#ffffff;stop-opacity:1"
         offset="0.84754151" />
      <stop
         id="stop3756"
         style="stop-color:#ffffff;stop-opacity:0"
         offset="1" />
    </linearGradient>
    <radialGradient
       cx="4.02005"
       cy="5.5926585"
       r="10.273108"
       fx="4.02005"
       fy="5.5926585"
       id="radialGradient3402"
       xlink:href="#linearGradient3752"
       gradientUnits="userSpaceOnUse"
       gradientTransform="matrix(-1.680222e-2,1.3942814,-1.79662,-2.165073e-2,-5.3658054,-19.339419)" />
    <linearGradient
       x1="9.7045717"
       y1="20.882006"
       x2="9.7045717"
       y2="4.3030405"
       id="linearGradient3400"
       xlink:href="#linearGradient3390-178-986-453"
       gradientUnits="userSpaceOnUse"
       gradientTransform="matrix(0.9945751,0,0,0.9945751,-19.857339,-19.77827)" />
    <radialGradient
       cx="7.8185525"
       cy="8.5608768"
       r="11.268134"
       fx="7.8185525"
       fy="8.5608768"
       id="radialGradient3398"
       xlink:href="#linearGradient7012-661-145-733-759-865-745-661-970-94"
       gradientUnits="userSpaceOnUse"
       gradientTransform="matrix(1.6899516,0,0,1.0436086,-24.967043,-20.53429)" />
    <linearGradient
       id="linearGradient5157">
      <stop
         id="stop5159"
         style="stop-color:#c1c1c1;stop-opacity:1"
         offset="0" />
      <stop
         id="stop5161"
         style="stop-color:#909090;stop-opacity:1"
         offset="1" />
    </linearGradient>
    <linearGradient
       x1="9.8763561"
       y1="2.6014566"
       x2="9.8763561"
       y2="23.061668"
       id="linearGradient3396"
       xlink:href="#linearGradient5157"
       gradientUnits="userSpaceOnUse"
       gradientTransform="translate(-19.518072,-21.496043)" />
    <linearGradient
       id="linearGradient11111">
      <stop
         id="stop11113"
         style="stop-color:#ffffff;stop-opacity:1"
         offset="0" />
      <stop
         id="stop11115"
         style="stop-color:#cdcdcd;stop-opacity:1"
         offset="0.91013825" />
      <stop
         id="stop11117"
         style="stop-color:#a1a1a1;stop-opacity:1"
         offset="1" />
    </linearGradient>
    <linearGradient
       x1="-28.531403"
       y1="17.955765"
       x2="-28.531403"
       y2="37.502914"
       id="linearGradient3394"
       xlink:href="#linearGradient11111"
       gradientUnits="userSpaceOnUse"
       gradientTransform="translate(14.859932,-35.997365)" />
    <radialGradient
       cx="605.71429"
       cy="486.64789"
       r="117.14286"
       fx="605.71429"
       fy="486.64789"
       id="radialGradient3392"
       xlink:href="#linearGradient5060"
       gradientUnits="userSpaceOnUse"
       gradientTransform="matrix(-2.774389,0,0,1.969706,112.7623,-872.8854)" />
    <linearGradient
       id="linearGradient5060">
      <stop
         id="stop5062"
         style="stop-color:#000000;stop-opacity:1"
         offset="0" />
      <stop
         id="stop5064"
         style="stop-color:#000000;stop-opacity:0"
         offset="1" />
    </linearGradient>
    <radialGradient
       cx="605.71429"
       cy="486.64789"
       r="117.14286"
       fx="605.71429"
       fy="486.64789"
       id="radialGradient3390"
       xlink:href="#linearGradient5060"
       gradientUnits="userSpaceOnUse"
       gradientTransform="matrix(2.774389,0,0,1.969706,-1891.633,-872.8854)" />
    <linearGradient
       id="linearGradient5048">
      <stop
         id="stop5050"
         style="stop-color:#000000;stop-opacity:0"
         offset="0" />
      <stop
         id="stop5056"
         style="stop-color:#000000;stop-opacity:1"
         offset="0.5" />
      <stop
         id="stop5052"
         style="stop-color:#000000;stop-opacity:0"
         offset="1" />
    </linearGradient>
    <linearGradient
       x1="302.85715"
       y1="366.64789"
       x2="302.85715"
       y2="609.50507"
       id="linearGradient3388"
       xlink:href="#linearGradient5048"
       gradientUnits="userSpaceOnUse"
       gradientTransform="matrix(2.774389,0,0,1.969706,-1892.179,-872.8854)" />
    <linearGradient
       id="linearGradient3390-178-986-453">
      <stop
         id="stop3624"
         style="stop-color:#bb2b12;stop-opacity:1"
         offset="0" />
      <stop
         id="stop3626"
         style="stop-color:#cd7233;stop-opacity:1"
         offset="1" />
    </linearGradient>
    <linearGradient
       id="linearGradient7012-661-145-733-759-865-745-661-970-94">
      <stop
         id="stop3618"
         style="stop-color:#edb763;stop-opacity:1"
         offset="0" />
      <stop
         id="stop3270"
         style="stop-color:#de7f32;stop-opacity:1"
         offset="0.5" />
      <stop
         id="stop3620"
         style="stop-color:#d24413;stop-opacity:1"
         offset="1" />
    </linearGradient>
    <linearGradient
       id="linearGradient8265-821-176-38-919-66-249">
      <stop
         id="stop2687"
         style="stop-color:#ffffff;stop-opacity:0.27450982"
         offset="0" />
      <stop
         id="stop2689"
         style="stop-color:#ffffff;stop-opacity:0.07843138"
         offset="1" />
    </linearGradient>
  </defs>
  <g
     id="layer1">
    <g
       transform="matrix(0.3639508,0,0,0.3445682,-0.6448509,-0.3854516)"
       id="layer6">
      <g
         transform="matrix(2.165152e-2,0,0,1.485743e-2,43.0076,42.68539)"
         id="g2488"
         style="display:inline">
        <rect
           width="1339.6335"
           height="478.35718"
           x="-1559.2523"
           y="-150.69685"
           id="rect2490"
           style="opacity:0.40206185;fill:url(#linearGradient2673);fill-opacity:1;fill-rule:nonzero;stroke:none;stroke-width:1;marker:none;visibility:visible;display:inline;overflow:visible" />
        <path
           d="M -219.61876,-150.68038 C -219.61876,-150.68038 -219.61876,327.65041 -219.61876,327.65041 C -76.744594,328.55086 125.78146,220.48075 125.78138,88.454235 C 125.78138,-43.572302 -33.655436,-150.68036 -219.61876,-150.68038 L -219.61876,-150.68038 z"
           id="path2492"
           style="opacity:0.40206185;fill:url(#radialGradient2675);fill-opacity:1;fill-rule:nonzero;stroke:none;stroke-width:1;marker:none;visibility:visible;display:inline;overflow:visible" />
        <path
           d="M -1559.2523,-150.68038 C -1559.2523,-150.68038 -1559.2523,327.65041 -1559.2523,327.65041 C -1702.1265,328.55086 -1904.6525,220.48075 -1904.6525,88.454235 C -1904.6525,-43.572302 -1745.2157,-150.68036 -1559.2523,-150.68038 L -1559.2523,-150.68038 z"
           id="path2494"
           style="opacity:0.40206185;fill:url(#radialGradient2677);fill-opacity:1;fill-rule:nonzero;stroke:none;stroke-width:1;marker:none;visibility:visible;display:inline;overflow:visible" />
      </g>
    </g>
    <path
       d="M 0.60149736,1.5214532 C 0.54523936,1.5214532 0.49700936,1.5817982 0.49700936,1.6441262 C 0.49700936,6.2486955 0.50038336,10.295318 0.49635402,14.50138 C 5.2026801,14.47741 9.9114628,14.45312 14.61887,14.43586 C 14.201741,14.43586 13.506541,14.36577 13.516486,13.495373 C 13.519986,9.8983435 13.539446,6.0870201 13.527266,2.5145171 L 7.4753172,2.5145171 C 6.9978291,2.5145171 6.3790595,1.5214542 5.9492337,1.5214542 L 0.60150036,1.5214542 L 0.60149736,1.5214532 z"
       id="rect2196"
       style="fill:#ffffff;fill-opacity:1;stroke:#a8a8a8;stroke-width:0.97899997;stroke-linecap:round;stroke-linejoin:round;stroke-miterlimit:4;stroke-dasharray:none;stroke-opacity:1;display:inline" />
    <path
       d="M 2.5253881,4.5240135 C 3.1817521,4.5240135 15.00543,4.5554065 15.514389,4.5554065 C 15.514389,5.1708195 15.489709,14.513481 15.460319,14.513481 C 10.901476,14.531231 3.8009191,14.499591 2.4735051,14.499591 C 2.4735051,13.33812 2.5253851,6.9142625 2.5253851,4.5240185 L 2.5253881,4.5240135 z"
       id="rect3086"
       style="fill:url(#linearGradient2690);fill-opacity:1;stroke:url(#linearGradient2692);stroke-width:0.95339239;stroke-linecap:round;stroke-linejoin:round;stroke-miterlimit:4;stroke-dasharray:none;stroke-opacity:1;display:inline" />
    <path
       d="M 2.8354689,4.0000008 C 2.3788803,4.0000008 2.0010319,4.4483796 2.0010319,4.9901963 L 2.0010319,10.623308 C 2.0027819,10.724082 2.0450659,10.838978 2.1122901,10.909365 C 2.1795131,10.979755 2.2654393,11.009448 2.3626212,10.997385 C 2.3657112,10.997479 2.3688012,10.997479 2.3718912,10.997385 L 15.722884,8.4888869 C 15.877688,8.4599149 15.998866,8.3007656 16.00103,8.1148131 L 16.00103,4.9901963 C 16.00103,4.4483796 15.623181,4.0000008 15.166593,4.0000008 L 2.8354689,4.0000008 L 2.8354689,4.0000008 z"
       id="path2509"
       style="fill:url(#linearGradient2687);fill-opacity:1;fill-rule:evenodd;stroke:none" />
    <path
       d="M 3.4989691,13.999999 L 3.4989691,5.5 L 14.998969,5.5"
       id="path2406"
       style="opacity:0.35;fill:none;stroke:#ffffff;stroke-width:1px;stroke-linecap:butt;stroke-linejoin:miter;stroke-opacity:1" />
  </g>
</svg>

<?xml version="1.0" encoding="UTF-8" standalone="no"?>
<!-- Created with Inkscape (http://www.inkscape.org/) -->
<svg id="svg3272" xmlns="http://www.w3.org/2000/svg" height="16" width="16" version="1.0" xmlns:xlink="http://www.w3.org/1999/xlink">
 <defs id="defs3274">
  <linearGradient id="linearGradient2687" y2="24.628" gradientUnits="userSpaceOnUse" x2="20.055" gradientTransform="matrix(.29669 0 0 .35207 1.8805 2.1186)" y1="16.408" x1="18.031">
   <stop id="stop2687" style="stop-color:#fff;stop-opacity:.27451" offset="0"/>
   <stop id="stop2689" style="stop-color:#fff;stop-opacity:.078431" offset="1"/>
  </linearGradient>
  <linearGradient id="linearGradient2692" y2="4.0514" gradientUnits="userSpaceOnUse" x2="4.176" gradientTransform="matrix(1.0083 0 0 1.0006 -.00082398 -.0066205)" y1="14.993" x1="10.318">
   <stop id="stop3624" style="stop-color:#bb2b12" offset="0"/>
   <stop id="stop3626" style="stop-color:#cd7233" offset="1"/>
  </linearGradient>
  <linearGradient id="linearGradient2690" y2="238.4" gradientUnits="userSpaceOnUse" x2="169.23" gradientTransform="matrix(.054893 .013851 .0025726 .052482 -.71280 -.26741)" y1="58.583" x1="126.7">
   <stop id="stop3618" style="stop-color:#edb763" offset="0"/>
   <stop id="stop3270" style="stop-color:#de7f32" offset=".5"/>
   <stop id="stop3620" style="stop-color:#d24413" offset="1"/>
  </linearGradient>
  <radialGradient id="radialGradient2677" xlink:href="#linearGradient5060" gradientUnits="userSpaceOnUse" cy="486.65" cx="605.71" gradientTransform="matrix(-2.7744 0 0 1.9697 112.76 -872.89)" r="117.14"/>
  <radialGradient id="radialGradient2675" xlink:href="#linearGradient5060" gradientUnits="userSpaceOnUse" cy="486.65" cx="605.71" gradientTransform="matrix(2.7744 0 0 1.9697 -1891.6 -872.89)" r="117.14"/>
  <linearGradient id="linearGradient2673" y2="609.51" gradientUnits="userSpaceOnUse" x2="302.86" gradientTransform="matrix(2.7744 0 0 1.9697 -1892.2 -872.89)" y1="366.65" x1="302.86">
   <stop id="stop5050" style="stop-opacity:0" offset="0"/>
   <stop id="stop5056" offset=".5"/>
   <stop id="stop5052" style="stop-opacity:0" offset="1"/>
  </linearGradient>
  <linearGradient id="linearGradient5060">
   <stop id="stop5062" offset="0"/>
   <stop id="stop5064" style="stop-opacity:0" offset="1"/>
  </linearGradient>
 </defs>
 <g id="layer1">
  <g id="layer6" transform="matrix(.36395 0 0 .34457 -.64485 -.38545)">
   <g id="g2488" transform="matrix(.021652 0 0 .014857 43.008 42.685)">
    <rect id="rect2490" style="opacity:.40206;fill:url(#linearGradient2673)" height="478.36" width="1339.6" y="-150.7" x="-1559.3"/>
    <path id="path2492" style="opacity:.40206;fill:url(#radialGradient2675)" d="m-219.62-150.68v478.33c142.88 0.9 345.4-107.17 345.4-239.2 0-132.02-159.44-239.13-345.4-239.13z"/>
    <path id="path2494" style="opacity:.40206;fill:url(#radialGradient2677)" d="m-1559.3-150.68v478.33c-142.8 0.9-345.4-107.17-345.4-239.2 0-132.02 159.5-239.13 345.4-239.13z"/>
   </g>
  </g>
  <path id="rect2196" style="stroke-linejoin:round;stroke:#a8a8a8;stroke-linecap:round;stroke-width:0.979;fill:#fff" d="m0.6015 1.5215c-0.05626 0-0.10449 0.0603-0.10449 0.1226 0 4.6046 0.00337 8.6509-0.00066 12.857 4.7064-0.024 9.4152-0.048 14.123-0.065-0.417 0-1.112-0.07-1.103-0.941 0.004-3.5967 0.023-7.408 0.011-10.98l-6.0517-0.0005c-0.4775 0-1.0962-0.993-1.5261-0.993h-5.3477z"/>
  <path id="rect3086" style="stroke-linejoin:round;stroke:url(#linearGradient2692);stroke-linecap:round;stroke-width:.95339;fill:url(#linearGradient2690)" d="m2.5254 4.524c0.6564 0 12.48 0.0314 12.989 0.0314 0 0.6154-0.024 9.9576-0.054 9.9576-4.559 0.018-11.659-0.013-12.986-0.013-0.0005-1.162 0.0514-7.5857 0.0514-9.976z"/>
  <path id="path2509" style="fill:url(#linearGradient2687);fill-rule:evenodd" d="m2.8355 4c-0.4566 0-0.8345 0.4484-0.8345 0.9902v5.6328c0.0018 0.101 0.0441 0.216 0.1113 0.286 0.0672 0.071 0.1531 0.1 0.2503 0.088h0.0093l13.351-2.5081c0.155-0.029 0.276-0.1881 0.278-0.3741v-3.1246c0-0.5418-0.378-0.9902-0.834-0.9902h-12.332 0.0005z"/>
  <path id="path2406" style="opacity:.35;stroke:#fff;stroke-width:1px;fill:none" d="m3.499 14v-8.5h11.5"/>
 </g>
</svg>
